X: 41769
T: Varsovienne
R: mazurka
M: 3/4
K: Gmajor
|:d2 e2 fg|fe d4|B2 c3 d|c2 B4|
B2 B3 A|BA B2 G2|B2 c2 B2|A2 G4:|

